X:1
T: Miss Ommanny's Reel
C:
R:Jig
Q: 180
K:D
M:6/8
L:1/8
|:A|F2A- AFA|AFA AFA|GBG FAF|BGE E2A|
F2A AFA|AFA d2A|B1/2c1/2dB AFd|AFD D2:|
|:g|afd dfd|ded c2A|B1/2c1/2dB AFA|BGE E2g|
afd dfd|ded c2A|B1/2c1/2dB AFd|AFD D2:|
